X:1
T:Arabia (White), LMD
T:Arabia (White), LMD
T:White
T:Public Domain Courtesy of the Cyber Hymnal™
C:White
Z:Public Domain
Z:Courtesy of the Cyber Hymnal™
%%score ( 1 2 ) ( 3 4 )
L:1/8
M:4/4
K:D
V:1 treble 
V:2 treble 
V:3 bass 
V:4 bass 
V:1
 D2 | [DF]4 [EA]2 [Dd]2 | (c2 B2) [CA]2 [CG]2 | (G4 F2) [DA]2 | [DB]4 [Gc]2 [Ad]2 | %5
 [Ge]4 [Fd]2 [Ec]2 | [Fd]6 [Ae]2 | ([Af]2 [Ge]2) [Fd]2 [Ec]2 | (d2 c2) [DB]2 [CA]2 | [Dd]6 [CF]2 | %10
 [FB]4 [DB]2 [Ec]2 | (d2 c2) [FB]2 [E^A]2 | [DB]6 [DA]2 | [EA]4 [EG]2 [DF]2 | [DE]4 [DF]2 [CG]2 | %15
 [DF]6 [CE]2 | D2 E2 [DF]2 [DG]2 | [DA]4 [DG]2 [DF]2 | ([DF]4 [CE]2) A2 | [Ad]4 [Ad]2 [Gd]2 | %20
 [Ge]4 [Gd]2 [Ge]2 | (f4 e2) [De]2 | (c2 B2) [EA]2 [EG]2 | [DF]4 [DG]2 [CE]2 | D6 |] %25
V:2
 D2 | x8 | D4 x4 | D6 x2 | x8 | x8 | x8 | x8 | D4 x4 | x8 | x8 | F4 x4 | x8 | x8 | x8 | x8 | %16
 D4 x4 | x8 | x6 A2 | x8 | x8 | F6 x2 | D4 x4 | x8 | D6 |] %25
V:3
 [D,F,]2 | [D,A,]4 [C,E,]2 [B,,F,]2 | [G,,G,]4 [A,,E,]2 [A,,A,]2 | [D,A,]6 [F,D]2 | %4
 [G,D]4 [E,E]2 [F,D]2 | [G,B,]4 A,2 A,2 | [D,A,]6 [A,C]2 | [D,D]4 [D,A,]2 [D,A,]2 | %8
 (B,2 A,2) [D,G,]2 [E,G,]2 | [F,A,]6 [E,^A,]2 | [D,B,]4 [G,B,]2 [G,B,]2 | (B,2 E2) [F,D]2 [F,C]2 | %12
 [B,,B,]6 [D,F,]2 | [C,A,]4 [C,A,]2 [D,A,]2 | A,4 [A,,A,]2 [A,,A,]2 | [D,A,]6 [^A,,G,]2 | %16
 F,2 G,2 [A,,A,]2 [G,,B,]2 | [F,,A,]4 [G,,B,]2 [G,,B,]2 | [A,,A,]6 A,2 | [F,A,]4 [F,D]2 [B,D]2 | %20
 [A,C]4 [A,B,]2 [A,C]2 | [D,D]6 [F,,A,]2 | [G,,G,]4 [G,,B,]2 [G,,B,]2 | %23
 [A,,A,]4 [A,,E,]2 [A,,G,]2 | [D,F,]6 |] %25
V:4
 x2 | x8 | x8 | x8 | x8 | x4 A,2 A,2 | x8 | x8 | D,4 x4 | x8 | x8 | F,4 x4 | x8 | x8 | A,4 x4 | %15
 x8 | B,,4 x4 | x8 | x6 A,2 | x8 | x8 | x8 | x8 | x8 | x6 |] %25

